X:2105
T:Drömde mik en dröm i nat
T:(tolkning Müller, före 1888)
R:Visa
O:Lund, Skåne
S:[[De Svenska Landsmålen ock Svenskt Folklif]] VI, artikel "Nunnans dröm" av Adolf Lindgren
Z:Åke Persson, 2011-09-26
M:2/4
L:1/8
K:C bass
(C, | C,)E,D,E, | C,B,,A,, C, | E,E,/E,/E,C, | A,,2 z2 |
w:Dröm|-de mig- en|dröm i natt  om|sil-ke ock är-lig|päll|
C,E,D,E, | E,B,,E,B,, | C,A,,C,E, | B,,2 z2 |
(:musicend:)
Ligaturerna i originalet har här bara blivit till två toner. 



(:music:)
